X:1
T:Worthington, 77.77
T:Worthington, 77.77
T:Raymond DeWitt Mallary, 1888
T:Public Domain Courtesy of the Cyber Hymnal™
C:Raymond DeWitt Mallary, 1888
Z:Public Domain
Z:Courtesy of the Cyber Hymnal™
%%score ( 1 2 ) ( 3 4 )
L:1/8
Q:1/4=110
M:4/4
K:C
V:1 treble 
V:2 treble 
V:3 bass 
V:4 bass 
V:1
 [CE]2 [CE]2 [DG]2 [DG]2 | [Ec]2 [Ec]2 [^Ge]4 | [Ec]2 [GB]2 [EA]2 [Ec]2 | [^FB]2 [FA]2 G4 | %4
 [FB]3 [FA] [FG]2 [FG]2 | [Ee]3 [Ed] [Ec]4 | [Ec]2 [CA]2 [CG]3 [DF] | [CE]2 [B,D]2 C4 |] %8
V:2
 x8 | x8 | x8 | x4 G4 | x8 | x8 | x8 | x4 C4 |] %8
V:3
 [C,G,]2 [C,G,]2 [C,G,]2 [C,G,]2 | [A,,C]2 [A,,C]2 [E,D]4 | [A,,C]2 [B,,D]2 [C,C]2 [A,,C]2 | %3
 [D,D]2 [D,D]2 [G,B,]4 | [G,D]3 [G,C] [G,B,]2 [G,B,]2 | [^G,B,]3 [G,B,] [A,C]4 | %6
 [A,C]2 [F,A,]2 [E,G,]3 [F,A,] | G,2 [G,,F,]2 [C,E,]4 |] %8
V:4
 x8 | x8 | x8 | x8 | x8 | x8 | x8 | G,2 x6 |] %8

